X: 831
T: Robertson County
B: jims roots
M:C|
L:1/8
Q: 1/4=100
K:G
V:1 
dc | "G"B[G2B2][GB] [G2B2]gg | "C"ec2[Ec][E2c2]ag | "D"f[d2f2](e e)def | "G"(g2a)(g g)gdc |
"G"B[G2B2]B- BGAB | "C"cEcc [E2c2]ag | "D"f[d2f2](e e)def | "G"(g2a)(g g2):|
"G"+slide+b2g(d d2)g2 | "C"ba b2 g4 | "D"abag fdef | "G"g2g2 g2ab- |
"G"b2g2d2B2 | "C"c2 b2 g4 | "D"abag fdef | "G"g2gg g2dc ||
% abcbook-tune_id 6298c2795d369788eca3e280


% abcbook-boost 0
% abcbook-tablature 
% abcbook-transpose 
% abcbook-lastupdated 1654178426987
% abcbook-soundfonts 
% abcbook-repeats 1


